X: 32777
T: Pontivy
R: slip jig
M: 9/8
K: Eminor
M:7/8
|:AB de cBG|DE ED EFG|Az GF EFD|DE ED FGA|
AB de cBG|DE ED EFG|Az GF EFD|1 DE ED E2z:|2 DE ED EEF||
K: Gmaj
|:G2 dz dcB|DE dz dcB|GA AA AGA|B2 de cBA|
G2 dz dcB|DE dz dcB|DE ED FFD|1 GG GG GGD:|2 GG GA AAA||
K: Fmaj
|:B2 dc def|ee dc def|g2 fe dec|d2 df edc|
B2 dc def|ee dc def|g2 fe dec|d2 cd- d3:|

